X:1
T:title
M:4/4
Q:120
L:1/8
R:Reel
K:C
 ^b2 ^b'4 _A2 |  ^d4 ^C2 _a' ^g' | B2 _B _B3c ^c' | E _g2c'4 ^A |  ^e'2 ^e'3 ^ed'f |  _a'4 ^C2 ^d ^b' | d'3 ^ed'4 |  ^F3 _B2 _b' _b2 | 